dist/img/header/Phone_icon.svg

<svg width="24" height="24" viewBox="0 0 24 24" fill="none" xmlns="http://www.w3.org/2000/svg">
<path d="M23.3707 17.6136L20.0143 14.2643C18.8157 13.0681 16.7779 13.5466 16.2984 15.1016C15.9388 16.1782 14.7401 16.7763 13.6613 16.537C11.2639 15.9389 8.02748 12.8289 7.42814 10.3169C7.06853 9.24034 7.78775 8.04418 8.86656 7.68537C10.4249 7.20691 10.9043 5.17342 9.70564 3.97726L6.34932 0.627988C5.39038 -0.209329 3.95195 -0.209329 3.11287 0.627988L0.835372 2.90071C-1.44213 5.29304 1.07511 11.6327 6.70893 17.2547C12.3428 22.8767 18.6958 25.5083 21.0932 23.1159L23.3707 20.8432C24.2098 19.8863 24.2098 18.4509 23.3707 17.6136Z" fill="#437773"/>
</svg>

<svg width="24" height="24" fill="none" xmlns="http://www.w3.org/2000/svg"><path d="M23.37 17.614l-3.356-3.35c-1.198-1.196-3.236-.717-3.716.838-.36 1.076-1.558 1.674-2.637 1.435-2.397-.598-5.634-3.708-6.233-6.22-.36-1.077.36-2.273 1.439-2.632 1.558-.478 2.037-2.512.839-3.708L6.349.628c-.959-.837-2.397-.837-3.236 0L.835 2.901c-2.277 2.392.24 8.732 5.874 14.354 5.634 5.622 11.987 8.253 14.384 5.86l2.278-2.272c.839-.957.839-2.392 0-3.23z" fill="#437773"/></svg>
